Numix-Light/16/status/indicator-keyboard-Pl-3.svg

<?xml version="1.0" encoding="UTF-8" standalone="no"?>
<svg
   xmlns:dc="http://purl.org/dc/elements/1.1/"
   xmlns:cc="http://creativecommons.org/ns#"
   xmlns:rdf="http://www.w3.org/1999/02/22-rdf-syntax-ns#"
   xmlns:svg="http://www.w3.org/2000/svg"
   xmlns="http://www.w3.org/2000/svg"
   xmlns:sodipodi="http://sodipodi.sourceforge.net/DTD/sodipodi-0.dtd"
   xmlns:inkscape="http://www.inkscape.org/namespaces/inkscape"
   viewBox="0 0 16 16"
   id="svg2"
   version="1.1"
   inkscape:version="0.91 r13725"
   sodipodi:docname="indicator-keyboard-Pl-3.svg">
  <metadata
     id="metadata14">
    <rdf:RDF>
      <cc:Work
         rdf:about="">
        <dc:format>image/svg+xml</dc:format>
        <dc:type
           rdf:resource="http://purl.org/dc/dcmitype/StillImage" />
      </cc:Work>
    </rdf:RDF>
  </metadata>
  <defs
     id="defs12" />
  <sodipodi:namedview
     pagecolor="#ffffff"
     bordercolor="#666666"
     borderopacity="1"
     objecttolerance="10"
     gridtolerance="10"
     guidetolerance="10"
     inkscape:pageopacity="0"
     inkscape:pageshadow="2"
     inkscape:window-width="640"
     inkscape:window-height="480"
     id="namedview10"
     showgrid="false"
     inkscape:zoom="14.75"
     inkscape:cx="8"
     inkscape:cy="8"
     inkscape:window-x="75"
     inkscape:window-y="34"
     inkscape:window-maximized="0"
     inkscape:current-layer="svg2" />
  <path
     style="fill:#353535;fill-opacity:1"
     d="M 1.5996094 0 C 0.71320937 2.9605947e-16 0 0.71320937 0 1.5996094 L 0 14.400391 C 2.9605947e-16 15.286791 0.71320937 16 1.5996094 16 L 14.400391 16 C 15.286791 16 16 15.286791 16 14.400391 L 16 1.5996094 C 16 0.71320937 15.286791 0 14.400391 0 L 1.5996094 0 z M 9.046875 4.1113281 L 9.046875 9.9628906 C 9.046875 10.106891 9.0580313 10.2225 9.0820312 10.3125 C 9.1120312 10.3965 9.1549844 10.465531 9.2089844 10.519531 C 9.2629844 10.567531 9.3320156 10.604906 9.4160156 10.628906 C 9.5060156 10.652906 9.6104688 10.673406 9.7304688 10.691406 L 9.6503906 11.177734 C 9.4523906 11.171734 9.2769531 11.143703 9.1269531 11.095703 C 8.9829531 11.053703 8.8617656 10.988438 8.7597656 10.898438 C 8.6637656 10.802438 8.5872031 10.681109 8.5332031 10.537109 C 8.4852031 10.387109 8.4609375 10.202469 8.4609375 9.9804688 L 8.4609375 4.2207031 L 9.046875 4.1113281 z M 4.7558594 4.8046875 C 5.6378594 4.8046875 6.2945625 4.9725937 6.7265625 5.3085938 C 7.1585625 5.6445937 7.375 6.1222344 7.375 6.7402344 C 7.375 7.0942344 7.3115469 7.3964375 7.1855469 7.6484375 C 7.0595469 7.8944375 6.8804844 8.0959531 6.6464844 8.2519531 C 6.4124844 8.4019531 6.12325 8.5139375 5.78125 8.5859375 C 5.44525 8.6519375 5.0646719 8.6835937 4.6386719 8.6835938 L 3.7929688 8.6835938 L 3.7929688 11.095703 L 3.1816406 11.095703 L 3.1816406 4.9765625 C 3.3976406 4.9165625 3.6495 4.8736094 3.9375 4.8496094 C 4.2315 4.8196094 4.5038594 4.8046875 4.7558594 4.8046875 z M 4.7832031 5.3359375 C 4.5552031 5.3359375 4.3592656 5.3452813 4.1972656 5.3632812 C 4.0412656 5.3752813 3.9069688 5.3864375 3.7929688 5.3984375 L 3.7929688 8.1523438 L 4.5664062 8.1523438 C 4.8964062 8.1523438 5.1930313 8.1356094 5.4570312 8.0996094 C 5.7270312 8.0576094 5.9565781 7.9848125 6.1425781 7.8828125 C 6.3345781 7.7748125 6.4800313 7.6274062 6.5820312 7.4414062 C 6.6840313 7.2554062 6.7363281 7.0184688 6.7363281 6.7304688 C 6.7363281 6.4544687 6.6784531 6.226875 6.5644531 6.046875 C 6.4564531 5.866875 6.3090469 5.7250469 6.1230469 5.6230469 C 5.9430469 5.5150469 5.7359531 5.4404375 5.5019531 5.3984375 C 5.2679531 5.3564375 5.0292031 5.3359375 4.7832031 5.3359375 z M 11.451172 8.7539062 C 11.653972 8.7539062 11.826403 8.7793781 11.970703 8.8300781 C 12.118903 8.8807781 12.242344 8.953275 12.339844 9.046875 C 12.437344 9.136575 12.509841 9.2463 12.556641 9.375 C 12.603441 9.4997999 12.626953 9.6350031 12.626953 9.7832031 C 12.626953 10.021103 12.562294 10.217041 12.433594 10.369141 C 12.308794 10.517341 12.146166 10.625106 11.947266 10.691406 C 12.056466 10.718706 12.162272 10.759859 12.263672 10.818359 C 12.368972 10.872959 12.463022 10.945456 12.544922 11.035156 C 12.626822 11.120956 12.693441 11.226762 12.744141 11.351562 C 12.794841 11.476363 12.818359 11.623316 12.818359 11.791016 C 12.818359 11.962616 12.788963 12.119372 12.726562 12.263672 C 12.668063 12.407972 12.577931 12.535331 12.457031 12.644531 C 12.340031 12.749831 12.189159 12.834084 12.005859 12.896484 C 11.822559 12.954984 11.608981 12.984375 11.363281 12.984375 C 11.234581 12.984375 11.115059 12.974578 11.005859 12.955078 C 10.900559 12.939478 10.806509 12.919884 10.724609 12.896484 C 10.642709 12.873084 10.572172 12.849572 10.513672 12.826172 C 10.459072 12.802772 10.417925 12.783178 10.390625 12.767578 L 10.490234 12.427734 C 10.513634 12.443334 10.552822 12.462928 10.607422 12.486328 C 10.662022 12.509728 10.726681 12.533241 10.800781 12.556641 C 10.878781 12.576141 10.964994 12.593775 11.058594 12.609375 C 11.156094 12.624975 11.2619 12.632813 11.375 12.632812 C 11.7455 12.632812 12.010022 12.556397 12.169922 12.404297 C 12.329822 12.248297 12.410156 12.040597 12.410156 11.779297 C 12.410156 11.607697 12.376847 11.464662 12.310547 11.351562 C 12.248147 11.238462 12.159975 11.148331 12.046875 11.082031 C 11.937675 11.011831 11.808356 10.962847 11.660156 10.935547 C 11.515856 10.904347 11.363019 10.888672 11.199219 10.888672 L 11.140625 10.888672 L 11.140625 10.574219 L 11.275391 10.574219 C 11.380691 10.574219 11.486503 10.564422 11.595703 10.544922 C 11.708803 10.521522 11.810691 10.480375 11.900391 10.421875 C 11.993991 10.363375 12.070406 10.285 12.128906 10.1875 C 12.191306 10.09 12.222656 9.9646001 12.222656 9.8125 C 12.222656 9.6838 12.201103 9.5760281 12.158203 9.4863281 C 12.115303 9.3927281 12.056522 9.3182719 11.982422 9.2636719 C 11.912222 9.2090719 11.827969 9.1698844 11.730469 9.1464844 C 11.636869 9.1191844 11.538894 9.1054687 11.433594 9.1054688 C 11.222994 9.1054688 11.058406 9.1348594 10.941406 9.1933594 C 10.824406 9.2518594 10.728397 9.3067219 10.654297 9.3574219 L 10.490234 9.0585938 C 10.529234 9.0312937 10.578219 8.9999437 10.636719 8.9648438 C 10.699119 8.9297437 10.771616 8.8964344 10.853516 8.8652344 C 10.935416 8.8340344 11.025547 8.8085625 11.123047 8.7890625 C 11.224447 8.7656625 11.334172 8.7539062 11.451172 8.7539062 z "
     id="path4" />
</svg>

<svg xmlns="http://www.w3.org/2000/svg" viewBox="0 0 16 16">
 <path d="m 1.6 0 c -0.886 0 -1.6 0.713 -1.6 1.6 l 0 12.801 c 0 0.886 0.713 1.6 1.6 1.6 l 12.801 0 c 0.886 0 1.6 -0.713 1.6 -1.6 l 0 -12.801 c 0 -0.886 -0.713 -1.6 -1.6 -1.6 l -12.801 0 z m 7.447 4.111 l 0 5.852 c 0 0.144 0.011 0.26 0.035 0.35 c 0.03 0.084 0.073 0.153 0.127 0.207 c 0.054 0.048 0.123 0.085 0.207 0.109 c 0.09 0.024 0.194 0.044 0.314 0.063 l -0.08 0.486 c -0.198 -0.006 -0.373 -0.034 -0.523 -0.082 c -0.144 -0.042 -0.265 -0.107 -0.367 -0.197 c -0.096 -0.096 -0.173 -0.217 -0.227 -0.361 c -0.048 -0.15 -0.072 -0.335 -0.072 -0.557 l 0 -5.76 l 0.586 -0.109 z m -4.291 0.693 c 0.882 0 1.539 0.168 1.971 0.504 c 0.432 0.336 0.648 0.814 0.648 1.432 c 0 0.354 -0.063 0.656 -0.189 0.908 c -0.126 0.246 -0.305 0.448 -0.539 0.604 c -0.234 0.15 -0.523 0.262 -0.865 0.334 c -0.336 0.066 -0.717 0.098 -1.143 0.098 l -0.846 0 l 0 2.412 l -0.611 0 l 0 -6.119 c 0.216 -0.06 0.468 -0.103 0.756 -0.127 c 0.294 -0.03 0.566 -0.045 0.818 -0.045 z m 0.027 0.531 c -0.228 0 -0.424 0.009 -0.586 0.027 c -0.156 0.012 -0.29 0.023 -0.404 0.035 l 0 2.754 l 0.773 0 c 0.33 0 0.627 -0.017 0.891 -0.053 c 0.27 -0.042 0.5 -0.115 0.686 -0.217 c 0.192 -0.108 0.337 -0.255 0.439 -0.441 c 0.102 -0.186 0.154 -0.423 0.154 -0.711 c 0 -0.276 -0.058 -0.504 -0.172 -0.684 c -0.108 -0.18 -0.255 -0.322 -0.441 -0.424 c -0.18 -0.108 -0.387 -0.183 -0.621 -0.225 c -0.234 -0.042 -0.473 -0.063 -0.719 -0.063 z m 6.668 3.418 c 0.203 0 0.375 0.025 0.52 0.076 c 0.148 0.051 0.272 0.123 0.369 0.217 c 0.098 0.09 0.17 0.199 0.217 0.328 c 0.047 0.125 0.07 0.26 0.07 0.408 c 0 0.238 -0.065 0.434 -0.193 0.586 c -0.125 0.148 -0.287 0.256 -0.486 0.322 c 0.109 0.027 0.215 0.068 0.316 0.127 c 0.105 0.055 0.199 0.127 0.281 0.217 c 0.082 0.086 0.149 0.192 0.199 0.316 c 0.051 0.125 0.074 0.272 0.074 0.439 c 0 0.172 -0.029 0.328 -0.092 0.473 c -0.058 0.144 -0.149 0.272 -0.27 0.381 c -0.117 0.105 -0.268 0.19 -0.451 0.252 c -0.183 0.059 -0.397 0.088 -0.643 0.088 c -0.129 0 -0.248 -0.01 -0.357 -0.029 c -0.105 -0.016 -0.199 -0.035 -0.281 -0.059 c -0.082 -0.023 -0.152 -0.047 -0.211 -0.07 c -0.055 -0.023 -0.096 -0.043 -0.123 -0.059 l 0.1 -0.34 c 0.023 0.016 0.063 0.035 0.117 0.059 c 0.055 0.023 0.119 0.047 0.193 0.07 c 0.078 0.019 0.164 0.037 0.258 0.053 c 0.098 0.016 0.203 0.023 0.316 0.023 c 0.37 0 0.635 -0.076 0.795 -0.229 c 0.16 -0.156 0.24 -0.364 0.24 -0.625 c 0 -0.172 -0.033 -0.315 -0.1 -0.428 c -0.062 -0.113 -0.151 -0.203 -0.264 -0.27 c -0.109 -0.07 -0.239 -0.119 -0.387 -0.146 c -0.144 -0.031 -0.297 -0.047 -0.461 -0.047 l -0.059 0 l 0 -0.314 l 0.135 0 c 0.105 0 0.211 -0.01 0.32 -0.029 c 0.113 -0.023 0.215 -0.065 0.305 -0.123 c 0.094 -0.059 0.17 -0.137 0.229 -0.234 c 0.062 -0.098 0.094 -0.223 0.094 -0.375 c 0 -0.129 -0.022 -0.236 -0.064 -0.326 c -0.043 -0.094 -0.102 -0.168 -0.176 -0.223 c -0.07 -0.055 -0.154 -0.094 -0.252 -0.117 c -0.094 -0.027 -0.192 -0.041 -0.297 -0.041 c -0.211 0 -0.375 0.029 -0.492 0.088 c -0.117 0.059 -0.213 0.113 -0.287 0.164 l -0.164 -0.299 c 0.039 -0.027 0.088 -0.059 0.146 -0.094 c 0.062 -0.035 0.135 -0.068 0.217 -0.1 c 0.082 -0.031 0.172 -0.057 0.27 -0.076 c 0.101 -0.023 0.211 -0.035 0.328 -0.035 z" style="fill:#353535;fill-opacity:1"/>
</svg>
